localPackages/DesignSystem/Sources/DesignSystem/Resources/Assets.xcassets/IconSet/ic-play.imageset/ic-play.svg

<svg width="24" height="24" viewBox="0 0 24 24" fill="none" xmlns="http://www.w3.org/2000/svg">
<g id="ic-play">
<path id="Icon" fill-rule="evenodd" clip-rule="evenodd" d="M7.5 6.00373C7.5 4.75719 8.93047 4.05286 9.91848 4.81286L17.7136 10.8091C18.4955 11.4105 18.4955 12.5894 17.7136 13.1908L9.91848 19.187C8.93047 19.947 7.5 19.2426 7.5 17.9961L7.5 6.00373ZM9.00002 6.00226C9.00001 6.00271 9 6.0032 9 6.00373L9 17.9961C9 17.9966 9.00001 17.9971 9.00002 17.9976C9.00042 17.9978 9.00086 17.998 9.00136 17.9983C9.00185 17.9985 9.00232 17.9987 9.00274 17.9989C9.00311 17.9986 9.0035 17.9983 9.00392 17.998L16.7991 12.0018C16.7994 12.0016 16.7997 12.0013 16.7999 12.0011C16.8 12.0008 16.8 12.0004 16.8 11.9999C16.8 11.9994 16.8 11.999 16.7999 11.9987C16.7997 11.9985 16.7994 11.9983 16.7991 11.998L9.00392 6.00181C9.0035 6.00148 9.00311 6.00119 9.00274 6.00092C9.00232 6.0011 9.00185 6.00131 9.00136 6.00155C9.00086 6.00179 9.00042 6.00203 9.00002 6.00226Z" fill="#0F0F0F"/>
</g>
</svg>

<svg xmlns="http://www.w3.org/2000/svg" width="24" height="24" viewBox="0 0 24 24">
  <g class="ic-play">
    <path fill-rule="evenodd" d="M7.5 6.003c0-1.246 1.43-1.95 2.418-1.19l7.796 5.996c.782.601.782 1.78 0 2.381l-7.796 5.996c-.988.76-2.418.056-2.418-1.19V6.003ZM9 6.002v11.995h.001l.002.001L16.8 12l.001-.002v-.002L9.003 6.002h-.001A.03.03 0 0 0 9 6Z" class="Icon"/>
  </g>
</svg>
